X:1
T:Title
T:Symphony No. 9 "From the New World" 
T:Antonín Dvořák, Op. 95
C:Composer
%%score { ( 1 4 ) | ( 2 3 ) } { ( 5 6 ) | ( 7 8 ) }
L:1/8
Q:1/4=126
M:4/8
K:G
V:1 treble nm="Piano" snm="Pno."
V:4 treble 
V:2 bass 
V:3 bass 
V:5 bass nm="Piano" snm="Pno."
V:6 bass 
V:7 bass 
V:8 bass 
V:1
"^Adagio.""^M. M." z4 | z4 | z4 | z4 | z4 |!p! (b- b/4a/.b/4 f2) |!<(! (g- g/4f/.g/4!<)! d2) | %7
"_dim." (e- e/4d/!p!.e/4!>(! f/) z/ g/!>)! z/ | f z z2 | z7/8!ff! [ac'_e']/8 [ac'e']2 z | %10
 z7/8 [ac'_e']/8 [ac'e']2 z | z7/8 [ac'_e']/8[ac'e']3/4 z/4 z7/8 [ac'e']/8[ac'e']3/4 z/4 | z4 | %13
 z4 | %14
 z/4!p! [_bg']/4[_c'_a']/- [c'a']/4[g=e']/.[_a=f']/4 .[af']/4[=e^c']/.[=fd']/4 .[fd']/4[^c_b]/.[d_c']/4 | %15
 [_cd_c']/4 z3/4 z z2 | %16
!8va(! z/4!p! [^c'_b']/4[d'_c'']/- [d'c'']/4[_bg']/.[_c'_a']/4 .[c'a']/4!8va)![g=e']/.[_a=f']/4 .[af']/4[=e^c']/.[=fd']/4 | %17
 [d=fd']/4 z/4 z/ z z2 |!f! [^f^g=d']/4 z3/4 z [fgd']/4 z3/4 z | [fa^d']/4 z3/4 z [fad']/4 z3/4 z | %20
"_cresc." [g_be']/4 ^d/e/!<(!f/g/a/_b/4 z/4 [d^d']/4[ee']/4[gg']/4!<)! | %21
 [be'g'b']/4 z3/4 [^dfb]/4 z3/4 z2 | !////-!B2 b2 |: %23
[M:2/4][Q:1/4=136]"^Allegro molto."[Q:1/4=136]"^M.M."!pp! !////-![eg]2 b2 | !////-![eg]2 b2 | %25
 !////-![eg]2 c'2 | bgeB | !////-!B2 b2 | !////-!B2 b2 | !////-!B2 b2 | %30
!<(! (B/G/E/G/!<)!!>(! B/e/g/e/)!>)! | !>!e4- | e z z2 | z4 | z2 z!p! [GB] | %35
 !>![GB]>.[Bd] .[Bd].[FA] | !>![GB]>.[Bd] .[Bd].[FA] | !>![GB]>.[Bd] .[Bd].[FA] | %38
!ff! !////-![fb]2 ^d2- | [dfb] z z2 | !////-![fac']2 e2- | [efac'] z z2 | !////-![b^d']2 f2- | %43
 [fb^d'] z z2 | !////-![c'e']2 a2- | [ac'e'] z z2 |!f! z4 | z4 | (e!<(!cBA) | (ecBA)!<)! | %50
!f!!<(! (e/c/B/A/) (a/e/d/c/) | (c'/b/a/e/) (e'/c'/b/a'/)!<)! |!ff! f'e'f'e' | f'e'f'e' | %54
 g'e'g'e' | g'e'g'e' |!<(!!8va(! !//-!b'2 b2 | b'/b/b'/b/ b'/b/^d''/^d'/!<)! | %58
"^1"!fff! !////-![g'b'e'']2 e'2 | !////-![g'b'e'']2 e'2 | !////-![g'c''e'']2 e'2 | %61
 !////-![g'b'e'']2 e'2 | ([e'g']>.[g'b']) ([g'b'].[^d'f']) | ([e'g']>.[g'b']) ([g'b'].[^d'f']) | %64
 ([e'g']>.b') (b'.f') | (e'>.g') (g'd')!8va)! |] %66
V:2
"^Secondo" (E-E/4D/E/4 B,2) | (C-C/4B,/C/4 G,2) | (A,-A,/4G,/A,/4) .[G,B,]/ z/ .[F,C]/ z/ | %3
[K:treble] z7/4 E/4!>(! E2-!>)! |!pp! E z z2 | ([eg][df][ce][Bd]) | (cd_BA) | %7
 ((([GB]2 [Ad]/))) z/ [Gd]/ z/ | [Ad] z z2 | z7/8 [FAc_e]/8 [FAce]2 z | z7/8 [FAc_e]/8 [FAce]2 z | %11
 z7/8 [FAc_e]/8[FAce]3/4 z/4 z7/8 [FAce]/8[FAce]3/4 z/4 | z4 | z4 | %14
 z/4 [_Bg]/4[_c_a]/- [ca]/4[G=e]/.[_A=f]/4 .[Af]/4[=E^c]/.[=Fd]/4 .[Fd]/4[^C_B]/.[D_c]/4 | %15
!<(! !//-![D=F] _A!<)!!f!!>(! !//-![DF] A!>)! | %16
 z/4!p! [^c_b]/4[d_c']/- [dc']/4[_Bg]/.[_c_a]/4 .[ca]/4[G=e]/.[_A=f]/4 .[Af]/4[=E^c]/.[=Fd]/4 | %17
!<(! !//-![=F^G] =B!<)!!f!!<(! !//-![FG] B!<)! | %18
 [^F^G=d]/4 !>!^c/.d/4 G/4 z3/4 [^FG=d]/4 !>!c/.d/4 G/4 z3/4 | %19
 [FA^d]/4 !>!^^c/.d/4 A/4 z3/4 [FAd]/4 !>!c/.d/4 A/4 z3/4 | %20
 [G_Be]/4 [Bc]/4[Bc]/4[Bc]/4 [Bc]/4[Bc]/4[Bc]/4[Bc]/4 [EBc]/4[EBc]/4[EBc]/4[EBc]/4 [EGB^c]/4[EGBc]/4[EGBc]/4[EGBc]/4 | %21
 [EBe]/4 z3/4 [^DFB]/4 z3/4 z2 | B,/4 z/4 z/ z"_attacca" z2 |:[M:2/4] z4 | z4 | z4 | %26
 z B/4e/4B/4e/4 G/4B/4G/4B/4 E/4G/4E/4G/4 | !>![EG]>.G .G.[^DF] | !>![EG]>.G .G.[^DF] | %29
 !>![EG]>.G .G.[^DF] | [EG]/ z/ z z2 |"^marc."!mf!!<(! !^!E3 !^!G | !^!B !>!!^!e3!<)! | %33
!>(! !^!g2 !^!e!^!c | !^!B !^!E2!>)! [GB] | !>![GB]>.[Bd] .[Bd].[FA] | !>![GB]>.[Bd] .[Bd].[FA] | %37
 !>![GB]>.[Bd] .[Bd].[FA] |!ped! !>![^DFB]3!<(! D | F !>!B3!ped-up!!<)! |!ped! !>![EFAc]3 A | %41
 F !>!E3!ped-up! |!ped! !>![^DFB]3!<(! F | B !>!^d3!ped-up!!<)! |!ped! !>![Ace]3 c | %45
 B !>!A3!ped-up! | (cAGF) | (cAGF) | z4 | z4 | z2 A z | (c/B/A/) z/ (e/c/B/A/) | %52
 z/ [ef]/ z/ [ef]/ z/ [ef]/ z/ [ef]/ | z/ [ef]/ z/ [ef]/ z/ [ef]/ z/ [ef]/ | %54
 z/ [eg]/ z/ [eg]/ z/ [eg]/ z/ [eg]/ | z/ [eg]/ z/ [eg]/ z/ [eg]/ z/ [eg]/ | B[Ba] [Ba][Ba] | %57
 [Ba][Ba] [Ba][B^dab] | [egb]3 [Ee]/[Ee]/ |{/E} e4 | e3 [Ee]/[Ee]/ | [Ee]4 | %62
 ([eg]>.[gb]) ([gb].[^df]) | ([eg]>.[gb]) ([gb].[^df]) | ([eg]>.b) (b.f) | (e>.g) (gd) |] %66
V:3
 z4 | z4 | z4 |[K:treble] x4 | x4 | x4 | AB F2 | x4 | x4 | x4 | x4 | x4 | x4 | x4 | x4 | x4 | x4 | %17
 x4 | x4 | x4 | x4 | x4 | x4 |:[M:2/4] x4 | x4 | x4 | x4 | x4 | x4 | x4 | x4 | x4 | x4 | x4 | x4 | %35
 x4 | x4 | x4 | x4 | x4 | x4 | x4 | x4 | x4 | x4 | x4 | x4 | x4 | x4 | x4 | x4 | x4 | x4 | x4 | %54
 x4 | x4 | x4 | x4 | x4 | x4 | x4 | x4 | x4 | x4 | x4 | x4 |] %66
V:4
 x4 | x4 | x4 | x4 | x4 | x4 | x4 | x4 | x4 | x4 | x4 | x4 | x4 | x4 | x4 | x4 | %16
!8va(! x9/4!8va)! x7/4 | x4 | x4 | x4 | x4 | x4 | x4 |:[M:2/4] x4 | x4 | x4 | e/4g/4e/4g/4 z z2 | %27
 x4 | x4 | x4 | x4 | x4 | x4 | x4 | x4 | x4 | x4 | x4 | x4 | x4 | x4 | x4 | x4 | x4 | x4 | x4 | %46
 x4 | x4 | x4 | x4 | x4 | x4 | x4 | x4 | x4 | x4 |!8va(! x4 | x4 | x4 | x4 | x4 | x4 | x4 | x4 | %64
 x4 | x4!8va)! |] %66
V:5
!pp! (E-E/4D/E/4 B,2) | (C-C/4B,/C/4 G,2) | (A,-A,/4G,/A,/4)!>(! .[G,B,]/ z/ .[F,C]/ z/ | %3
 .[G,B,]/!>)! z/ z z2 | z4 | z4 | z4 |!p! (CB,) A,/ z/ G,/ z/ | %8
 B, z z z/4!ff! !>![D,D]/.[_E,_E]/4 |!<(! .A,/4 z/4!<)! z3/8 F,/8 F,2 z/4 !>![D,D]/[_E,_E]/4 | %10
!<(! .A,/4 z/4!<)! z3/8 F,/8 F,2 z/4 [D,D]/[_E,_E]/4 | %11
 A,/4!<(! z/4 z3/8!<)! F,/8 F,/4 !>![D,D]/[_E,_E]/4A,/4!<(! z/4 z3/8!<)! F,/8 F,/4 !>![D,D]/[E,E]/4 | %12
!>(! (A,2 C_E,)!>)! |!pp! (_G,2 =F,_E,) |!pp! (!///-!D,2 =F,2) | %15
!p!!<(! D,/>=F,/ _A,/<_B,/!<)!!f!!>(! _C/>A,/ _G,/<F,/!>)! |!pp! !//-!D, =F, !//-!D, _A, | %17
!p!!<(! =F,/>^G,/ B,/<^C/!<)!!f!!<(! !>!=D/>B,/ =A,/<^G,/!<)! | %18
!f! [^F,^G,B,=D]/4 !>!^C/.D/4 G,/4 z3/4 [F,G,B,D]/4 !>!C/.D/4 G,/4 z3/4 | %19
 [F,A,B,^D]/4 !>!^^C/.D/4 A,/4 z3/4 [F,A,=C^D]/4 !>!^^C/.D/4 A,/4 z3/4 | %20
"_cresc." [G,_B,E]/ !>!G/!<(!!>!E/!>!C/ !>!B,/!>!G,/ (3!>!E,/!>![^C,E,]/!>![^A,,C,E,]/!<)! | %21
 [B,,E,G,]/4 z/4 E,/4 z/4 [B,,^D,F,B,]/4 z/4 z/ z2 | z4 |:[M:2/4]"^marc."!mf!!<(! !^!E,3 !^!G, | %24
 !^!B, !>!!^!E3!<)! |!f! !^!G2 !^!E!^!C |!>(! !^!B, !^!E,2!>)!!p! [E,G,] | %27
 !>![E,G,]>.[G,B,] .[G,B,].[E,G,] | !>![E,G,]>.[G,B,] .[G,B,].[E,G,] | %29
 !>![E,G,]>.[G,B,] .[G,B,].[E,G,] | !////-![E,G,]2 B,2 | !////-![E,G,]2 B,2 | !////-![E,G,]2 B,2 | %33
 !////-![E,G,]2 C2 | !////-![G,B,]2 D2 | !////-!D,2 D2 | !////-!D,2 D2 | !////-!D,2 D2 | %38
!ff!!<(!{/B,} !>!B,,3 ^D, | F, !>!B,3!<)! | !>!C3 A, | F, !>!E,3 |!<(! !>!^D,3 F, | B, !>!^D3!<)! | %44
 !>!E3 C | B, !>!A,3 |!f! ([F,A,]/[G,B,]/[A,C]/F,/ C/A,/C/A,/) | %47
 ([F,A,]/[G,B,]/[A,C]/F,/ C/A,/C/A,/) | ([A,C]/[B,D]/[CE]/A,/ E/C/E/C/) | %49
 ([A,C]/[B,D]/[CE]/A,/ E/C/E/C/) |!f!!<(! ([A,C]/[B,D]/[CE]/A,/ [A,C]/[B,D]/[CE]/A,/) | %51
 ([A,C]/[B,D]/[CE]/A,/ [A,C]/[B,D]/[CE]/A,/)!<)! |!ff! !>![EF]2 !>![E,E]2 | !>![EF]2 !>![E,E]2 | %54
 !>![EG]2 !>![E,E]2 | !>![EG]2 !>![E,E]2 |!<(! B,[^C,A,^C][^D,A,B,^D][E,A,B,E] | %57
 [^E,A,B,^E][F,A,B,F][^D,A,B,^D][B,,A,B,]!<)! |!fff!"^marcato" !^!E,3 !^![G,,G,] | %59
 !^![B,,B,] !>!!^![E,E]3 | !>!!^![G,G]2 .!^![E,E].!^![C,C] | !^![B,,B,] !>!!^!E,3 | %62
 [B,EG]/B/B,/B/ B,/B/[B,^DF]/B/ | [B,EG]/B/B,/B/ B,/B/[B,^DF]/B/ | [B,EG]/B/G/B/ G/B/A/c/ | %65
 G/B/G/B/ G/B/F/A/ |] %66
V:6
 (G,2 F,=F,) | (E,2 _E,D,) | z2 !>!E,2- | E,/ z/ z z2 | x4 | x4 | x4 | x4 | x4 | x4 | x4 | x4 | %12
 x4 | x4 | x4 | x4 | x4 | x4 | x4 | x4 | x4 | x4 | x4 |:[M:2/4] x4 | x4 | x4 | x4 | x4 | x4 | x4 | %30
 x4 | x4 | x4 | x4 | x4 | x4 | x4 | x4 | x4 | x4 | x4 | x4 | x4 | x4 | x4 | x4 | x4 | x4 | x4 | %49
 x4 | x4 | x4 | x4 | x4 | x4 | x4 | x4 | x4 | x4 | x4 | x4 | x4 | x4 | x4 | x4 | x4 |] %66
V:7
 (E,2 D,2) | (C,2 B,,2) | (^C,=C,) .B,,/ z/ .C,/ z/ | .B,,/ z/ z z2 | z4 | z4 | z4 | z4 | %8
 z2 z z/4 !>!D,,/._E,,/4 | .[A,,,A,,]/4 A,,/8A,,/8 A,,/4 z/4 z z z/4 !>!D,,/_E,,/4 | %10
 .[A,,,A,,]/4 A,,/8A,,/8 A,,/4 z/4 z z z/4 D,,/_E,,/4 | %11
 [A,,,A,,]/4 A,,/8A,,/8 A,,/4 z/4 z/4 !>!D,,/_E,,/4[A,,,A,,]/4 A,,/8A,,/8 A,,/4 z/4 z/4 !>!D,,/E,,/4 | %12
 ([A,,,A,,]2 [C,,C,][_E,,,_E,,]) | ([_G,,,_G,,]2 [=F,,,=F,,][^D,,,^D,,]) | _B,,4 | %15
 D,,/>=F,,/ _A,,/<_B,,/ _C,/>A,,/ _G,,/<F,,/ | _B,,4 | %17
 =F,,/>^G,,/ B,,/<^C,/ !>!=D,/>B,,/ =A,,/<^G,,/ | [=B,,,=B,,]/4 z/4 z/ z [=B,,,=B,,]/4 z/4 z/ z | %19
 [B,,,B,,]/4 z/4 z/ z [=C,,A,,=C,]/4 z/4 z/ z | %20
 [C,,C,]/ !>!G,/!>!E,/!>!C,/ !>!_B,,/!>!G,,/ (3!>!E,,/!>!^C,,/!>!^A,,,/ | %21
 B,,,/4 z3/4 B,,,/4 z/4!>(! B,,,/8B,,/8B,,,/8B,,/8"^trem.\n" !////-!B,,, B,,!>)! | %22
!p! B,,,/ z/ z"_attacca" z2 |:[M:2/4]!p! .E,, z z2 | z4 | .C,, z z2 | .E,, z z2 | (E,,G,,B,,B,,,) | %28
 (E,,G,,B,,B,,,) | (E,,G,,B,,B,,,) | E,,2 z2 | .E,, z z2 | .E,, z z2 | .C,, z z2 | .G,, z z2 | %35
 (G,,B,,D,D,,) | (G,,B,,D,D,,) | (G,,B,,D,D,,) |!ped! !>!B,,,3 ^D,, | F,, !>!B,,3!ped-up! | %40
!ped! !>!C,3 A,, | F,, !>!E,,3!ped-up! |!ped! !>!^D,,3 F,, | B,, !>!^D,3!ped-up! |!ped! !>!E,3 C, | %45
 B,, !>!A,,3!ped-up! | [A,,,A,,]4 | A,,4 | A,,,4 | A,,4 | A,,,2 A,,2 | A,,,2 A,,2 | %52
 [^G,,,^G,,] !>![A,,,A,,]3 | [^G,,,^G,,] !>![A,,,A,,]3 | [A,,,A,,] !>![_B,,,_B,,]3 | %55
 [A,,,A,,] !>![_B,,,_B,,]3 |"^trem." !////-!=B,,,2 =B,,2 | !////-!B,,,2 B,,2 | !////-!E,,,2 E,,2 | %59
 !////-!E,,,2 E,,2 | !////-!E,,,2 E,,2 | !////-!E,,,2 E,,2 | [E,,E,]2 z [B,,,B,,] | %63
 [E,,E,]2 z [B,,,B,,] | [E,,E,]2 z B, | !>!E3 [E,,E,] |] %66
V:8
 x4 | x4 | A,,2 .E,,/ z/ .A,,/ z/ | .E,,/ z/ z z2 | x4 | x4 | x4 | x4 | x4 | x4 | x4 | x4 | x4 | %13
 x4 | !tenuto!_B,,,!tenuto!B,,,!tenuto!B,,,!tenuto!B,,, | _B,,,/4 z3/4 z z2 | %16
 !tenuto!_B,,,!tenuto!B,,,!tenuto!B,,,!tenuto!B,,, | _B,,,/4 z3/4 z z2 | x4 | x4 | x4 | x4 | x4 |: %23
[M:2/4] x4 | x4 | x4 | x4 | x4 | x4 | x4 | x4 | x4 | x4 | x4 | x4 | x4 | x4 | x4 | x4 | x4 | x4 | %41
 x4 | x4 | x4 | x4 | x4 | x4 | x4 | x4 | x4 | x4 | x4 | x4 | x4 | x4 | x4 | x4 | x4 | x4 | x4 | %60
 x4 | x4 | x4 | x4 | x4 | x4 |] %66

